X: 28669
T: Muskerry Tram, The
R: jig
M: 6/8
K: Gdorian
DGG/4G/4G/ ABc|dgg fdc|Bcd/d/ cAG|c/c/AG FDC|
DGG ABc|dgg fdc|BB/c/d cAF|AGF F<GG|
DGG/4G/4G/ ABc|dgg fdc|Bcd/d/ cAG|c/c/AG FDC|
DGG ABc|dgg fdc|BB/c/d cAF|AGF GBc||
dg/g/g dg/g/g|cf/f/f cf/f/f|dcd cBG|A/c/AG FDC|
DGG ABc|dgg fdc|Bcd cAF|AGF GAB|
dg/g/g dg/g/g|cf/f/f cf/f/f|dcd cBG|A/c/AG FDC|
DGG ABc|dgg fdc|Bcd cAF|AGF G3||

